src/images/bulb/moon.svg

<svg height="500" viewBox="0 0 500 500" width="500" xmlns="http://www.w3.org/2000/svg"><g fill="none" fill-rule="evenodd"><circle cx="250" cy="250" fill="#ecf3ff" r="250"/><g transform="translate(281 96)"><circle cx="45" cy="45" fill="#b6d6ec" r="45"/><path d="m40.6576001 89.7931801c-22.8154412-2.1845493-40.6576001-21.405235-40.6576001-44.7931801s17.8421589-42.60863075 40.6576001-44.79318008c-14.82017 9.39695284-24.6576001 25.94623898-24.6576001 44.79318008s9.8374301 35.3962272 24.6576133 44.7931814z" fill="#a4cbe6"/></g><circle cx="250" cy="96" fill="#b6d6ec" r="20"/><circle cx="88" cy="225" fill="#b6d6ec" r="25"/><path d="m85.5956565 249.885874c-12.6791223-1.209863-22.5956565-11.889803-22.5956565-24.885874s9.9165342-23.676011 22.5956565-24.885874c-7.0898618 5.961755-11.5956565 14.897622-11.5956565 24.885874s4.5057947 18.924119 11.5956592 24.885877z" fill="#a4cbe6"/><path d="m330.862331 13.3667305c98.387957 33.6122976 169.137669 126.8605435 169.137669 236.6332695 0 108.722082-69.40189 201.234484-166.320263 235.651799 73.430314-52.298913 121.320263-138.132708 121.320263-235.151799 0-98.254483-49.117327-185.0370003-124.137713-237.1332846z" fill="#d6e1f4"/><path d="m327.256474 487.834369c-14.804728 4.805712-30.215124 8.267528-46.087253 10.241511 1.447968-12.429321 12.012836-22.07588 24.830779-22.07588 8.976018 0 16.847178 4.730458 21.256475 11.834369z" fill="#b6d6ec"/><path d="m69.9705864 423.463381c-18.7641569-19.46992-34.3994456-41.976049-46.0964503-66.70897 7.7438548-13.590706 22.3647104-22.754411 39.1258639-22.754411 24.8528137 0 45 20.147186 45 45 0 22.481995-16.4866708 41.113322-38.0294136 44.463381z" fill="#b6d6ec"/><path d="m58.6576001 334.20682c-14.0518818 8.909808-23.6242504 24.249607-24.5789634 41.881264-3.6723876-6.275277-7.079035-12.724982-10.2045006-19.333673 7.0670678-12.402924 19.8616106-21.118843 34.783464-22.547591z" fill="#a4cbe6"/><path d="m247.846201 115.885381c-10.032811-1.074233-17.846201-9.567349-17.846201-19.885381 0-10.3180318 7.81339-18.8111485 17.846201-19.8853811-5.984674 4.5676335-9.846201 11.7755534-9.846201 19.8853811 0 8.109828 3.861527 15.317748 9.846201 19.885381z" fill="#a4cbe6"/><circle cx="290" cy="300" fill="#b6d6ec" r="20"/><path d="m287.846201 319.885381c-10.032811-1.074233-17.846201-9.567349-17.846201-19.885381s7.81339-18.811148 17.846201-19.885381c-5.984674 4.567633-9.846201 11.775553-9.846201 19.885381s3.861527 15.317748 9.846201 19.885381z" fill="#a4cbe6"/><circle cx="139" cy="388" fill="#b6d6ec" r="20"/><g fill="#a4cbe6"><path d="m136.846201 407.885381c-10.032811-1.074233-17.846201-9.567349-17.846201-19.885381s7.81339-18.811148 17.846201-19.885381c-5.984674 4.567633-9.846201 11.775553-9.846201 19.885381s3.861527 15.317748 9.846201 19.885381z"/><path d="m292.318342 496.433179c-3.689442.629036-7.406444 1.177232-11.149121 1.642701 1.356349-11.642865 10.712366-20.843978 22.426435-21.961754-5.989632 5.036589-10.134978 12.195848-11.277314 20.319053z"/><circle cx="210" cy="236" r="5"/><circle cx="190" cy="465" r="5"/><circle cx="64" cy="131" r="5"/><circle cx="415" cy="195" r="5"/><circle cx="387" cy="374" r="5"/></g></g></svg>

<svg xmlns="http://www.w3.org/2000/svg" viewBox="0 0 500 500"><g fill="none" fill-rule="evenodd"><circle cx="250" cy="250" fill="#ecf3ff" r="250"/><g transform="translate(281 96)"><circle cx="45" cy="45" fill="#b6d6ec" r="45"/><path d="M40.658 89.793C17.842 87.61 0 68.388 0 45S17.842 2.391 40.658.207C25.838 9.604 16 26.153 16 45s9.837 35.396 24.658 44.793z" fill="#a4cbe6"/></g><circle cx="250" cy="96" fill="#b6d6ec" r="20"/><circle cx="88" cy="225" fill="#b6d6ec" r="25"/><path d="M85.596 249.886C72.916 248.676 63 237.996 63 225s9.917-23.676 22.596-24.886C78.506 206.076 74 215.012 74 225s4.506 18.924 11.596 24.886z" fill="#a4cbe6"/><path d="M330.862 13.367C429.25 46.979 500 140.227 500 250c0 108.722-69.402 201.234-166.32 235.652C407.11 433.352 455 347.519 455 250.5c0-98.254-49.117-185.037-124.138-237.133z" fill="#d6e1f4"/><path d="M327.256 487.834a248.552 248.552 0 01-46.087 10.242C282.617 485.646 293.182 476 306 476c8.976 0 16.847 4.73 21.256 11.834zM69.97 423.463c-18.764-19.47-34.399-41.976-46.096-66.709C31.618 343.164 46.24 334 63 334c24.853 0 45 20.147 45 45 0 22.482-16.487 41.113-38.03 44.463z" fill="#b6d6ec"/><path d="M58.658 334.207c-14.052 8.91-23.625 24.25-24.58 41.881a249.304 249.304 0 01-10.204-19.334c7.067-12.403 19.862-21.118 34.784-22.547zM247.846 115.885C237.813 114.811 230 106.318 230 96c0-10.318 7.813-18.811 17.846-19.885C241.862 80.682 238 87.89 238 96c0 8.11 3.862 15.318 9.846 19.885z" fill="#a4cbe6"/><circle cx="290" cy="300" fill="#b6d6ec" r="20"/><path d="M287.846 319.885C277.813 318.811 270 310.318 270 300s7.813-18.811 17.846-19.885C281.862 284.682 278 291.89 278 300s3.862 15.318 9.846 19.885z" fill="#a4cbe6"/><circle cx="139" cy="388" fill="#b6d6ec" r="20"/><g fill="#a4cbe6"><path d="M136.846 407.885C126.813 406.811 119 398.318 119 388s7.813-18.811 17.846-19.885C130.862 372.682 127 379.89 127 388s3.862 15.318 9.846 19.885zM292.318 496.433a249.67 249.67 0 01-11.149 1.643c1.357-11.643 10.713-20.844 22.427-21.962-5.99 5.037-10.135 12.196-11.278 20.32z"/><circle cx="210" cy="236" r="5"/><circle cx="190" cy="465" r="5"/><circle cx="64" cy="131" r="5"/><circle cx="415" cy="195" r="5"/><circle cx="387" cy="374" r="5"/></g></g></svg>
